assets/svg/app/search.svg

<svg width="16" height="16" viewBox="0 0 16 16" fill="none" xmlns="http://www.w3.org/2000/svg">
<path fill-rule="evenodd" clip-rule="evenodd" d="M9.80667 9.33333H10.3333L13.66 12.6667L12.6667 13.66L9.33333 10.3333V9.80667L9.15333 9.62C8.39333 10.2733 7.40667 10.6667 6.33333 10.6667C3.94 10.6667 2 8.72667 2 6.33333C2 3.94 3.94 2 6.33333 2C8.72667 2 10.6667 3.94 10.6667 6.33333C10.6667 7.40667 10.2733 8.39333 9.62 9.15333L9.80667 9.33333ZM3.33333 6.33333C3.33333 7.99333 4.67333 9.33333 6.33333 9.33333C7.99333 9.33333 9.33333 7.99333 9.33333 6.33333C9.33333 4.67333 7.99333 3.33333 6.33333 3.33333C4.67333 3.33333 3.33333 4.67333 3.33333 6.33333Z" fill="#828295"/>
</svg>

<svg viewBox="0 0 16 16" fill="none" xmlns="http://www.w3.org/2000/svg">
    <path fill-rule="evenodd" clip-rule="evenodd" d="M9.807 9.333h.526l3.327 3.334-.993.993-3.334-3.327v-.526l-.18-.187a4.314 4.314 0 01-2.82 1.047 4.333 4.333 0 114.334-4.334c0 1.074-.394 2.06-1.047 2.82l.187.18zm-6.474-3c0 1.66 1.34 3 3 3s3-1.34 3-3-1.34-3-3-3-3 1.34-3 3z" fill="#828295"/>
</svg>
